fs/calligraphy_pen_question_mark_20_regular.svg

<svg viewBox="0 0 20 20" fill="none" xmlns="http://www.w3.org/2000/svg" height="1em" width="1em">
  <path d="M19 5.5C19 3.01472 16.9853 1 14.5 1C12.0147 1 10 3.01472 10 5.5C10 7.98528 12.0147 10 14.5 10C16.9853 10 19 7.98528 19 5.5ZM14.4999 7.38036C14.8448 7.38036 15.1244 7.65996 15.1244 8.00487C15.1244 8.34977 14.8448 8.62938 14.4999 8.62938C14.155 8.62938 13.8754 8.34977 13.8754 8.00487C13.8754 7.65996 14.155 7.38036 14.4999 7.38036ZM14.5 2.50345C15.531 2.50345 16.3534 3.34924 16.3534 4.45294C16.3534 5.0387 16.139 5.36068 15.6257 5.7715L15.3487 5.98581C15.103 6.1804 15.0202 6.28629 15.0034 6.43405L14.9919 6.5902C14.9495 6.82345 14.7454 7.0003 14.4999 7.0003C14.2238 7.0003 13.9999 6.77642 13.9999 6.50028C14 5.92938 14.2099 5.61614 14.7157 5.21183L14.9937 4.9968C15.2822 4.7679 15.3534 4.65474 15.3534 4.45294C15.3534 3.89534 14.9723 3.50345 14.5 3.50345C14.0062 3.50345 13.641 3.86913 13.6465 4.44814C13.6492 4.72427 13.4275 4.95026 13.1514 4.95292C12.8752 4.95557 12.6492 4.73387 12.6466 4.45774C12.6357 3.32084 13.452 2.50345 14.5 2.50345Z" fill="#212121"/>
  <path d="M14.8451 10.9894C14.731 10.9964 14.6159 11 14.5 11C14.249 11 14.0018 10.9832 13.7597 10.9506L10.5 16.5113V10.8662C10.7989 10.6933 11 10.3701 11 10C11 9.89778 10.9847 9.79913 10.9562 9.70625C10.8592 9.3902 10.6098 9.14082 10.2938 9.04384C10.2009 9.01534 10.1022 9 10 9C9.44772 9 9 9.44772 9 10C9 10.3701 9.2011 10.6933 9.5 10.8662V16.5113L6.21603 10.9093C5.96513 10.4813 5.94209 9.9569 6.15447 9.50854L7.81641 6H9.02242C9.00758 5.83532 9 5.66854 9 5.5C9 5.33146 9.00758 5.16468 9.02242 5H6.5C6.22386 5 6 4.77614 6 4.5V2.5C6 2.22386 5.77614 2 5.5 2C5.22386 2 5 2.22386 5 2.5V4.5C5 5.32843 5.67157 6 6.5 6H6.70989L5.25073 9.08046C4.89676 9.82771 4.93517 10.7016 5.35333 11.415L8.81578 17.3215C9.06215 17.7418 9.51282 18 9.99999 18C10.4872 18 10.9378 17.7418 11.1842 17.3215L14.6467 11.415C14.7268 11.2783 14.7929 11.1358 14.8451 10.9894Z" fill="#212121"/>
</svg>

<svg viewBox="0 0 20 20" fill="none" xmlns="http://www.w3.org/2000/svg" height="1em" width="1em">
  <path d="M19 5.5a4.5 4.5 0 1 0-9 0 4.5 4.5 0 0 0 9 0Zm-4.5 1.88a.625.625 0 1 1 0 1.25.625.625 0 0 1 0-1.25Zm0-4.877c1.031 0 1.853.846 1.853 1.95 0 .586-.214.908-.727 1.318l-.277.215c-.246.194-.329.3-.346.448l-.011.156A.5.5 0 0 1 14 6.5c0-.57.21-.884.716-1.288l.278-.215c.288-.23.36-.342.36-.544 0-.558-.382-.95-.854-.95-.494 0-.859.366-.854.945a.5.5 0 1 1-1 .01c-.01-1.137.806-1.955 1.854-1.955Z" fill="#212121"/>
  <path d="M14.845 10.99a5.636 5.636 0 0 1-1.085-.04l-3.26 5.561v-5.645a1 1 0 1 0-1 0v5.645L6.216 10.91a1.5 1.5 0 0 1-.062-1.4L7.816 6h1.206a5.57 5.57 0 0 1 0-1H6.5a.5.5 0 0 1-.5-.5v-2a.5.5 0 0 0-1 0v2A1.5 1.5 0 0 0 6.5 6h.21L5.25 9.08a2.5 2.5 0 0 0 .103 2.335l3.463 5.907a1.373 1.373 0 0 0 2.368 0l3.463-5.907c.08-.137.146-.28.198-.426Z" fill="#212121"/>
</svg>
